public/assets/images/whatsapp-white.svg

<svg width="40" height="40" viewBox="0 0 40 40" fill="none" xmlns="http://www.w3.org/2000/svg">
<rect width="40" height="40" rx="20" fill="#FAFAFA"/>
<rect x="0.5" y="0.5" width="39" height="39" rx="19.5" stroke="#D9D9D9" stroke-opacity="0.498039"/>
<path fill-rule="evenodd" clip-rule="evenodd" d="M20 10C22.6522 10 25.1957 11.0536 27.0711 12.9289C28.9464 14.8043 30 17.3478 30 20C30 25.5228 25.5228 30 20 30C18.03 30 16.2 29.43 14.65 28.45L10 30L11.55 25.35C10.57 23.8 10 21.97 10 20C10 14.4772 14.4772 10 20 10ZM24.8485 22.0108L24.8487 22.0108C25.0422 22.11 25.1669 22.1739 25.21 22.26C25.27 22.37 25.25 22.87 25 23.44C24.8 24 23.76 24.54 23.3 24.56C23.2193 24.5635 23.1524 24.5769 23.0835 24.5906C22.7601 24.6553 22.393 24.7287 20.34 23.83C18.0511 22.828 16.5987 20.4994 16.2859 19.9978L16.2859 19.9978C16.2584 19.9537 16.2397 19.9237 16.23 19.91C16.11 19.74 15.27 18.53 15.31 17.3C15.3596 16.0909 15.9887 15.5104 16.253 15.2665L16.26 15.26C16.5 15 16.77 14.97 16.94 15H17.41C17.4238 15 17.4382 14.9995 17.453 14.999C17.5986 14.9938 17.7875 14.9871 17.96 15.45L18.65 17.32C18.71 17.45 18.75 17.6 18.66 17.76L18.39 18.17L18 18.59L17.9912 18.5988C17.8734 18.7164 17.7434 18.8461 17.88 19.09C18 19.35 18.5 20.18 19.2 20.87C19.9626 21.6075 20.6479 21.9306 20.9912 22.0924C21.0576 22.1237 21.1111 22.1489 21.15 22.17C21.39 22.31 21.54 22.29 21.69 22.13L22.5 21.19C22.6874 20.9434 22.8457 20.9984 23.0708 21.0768L23.08 21.08L24.75 21.96C24.7846 21.978 24.8175 21.9948 24.8485 22.0108ZM12 20C12 15.5817 15.5817 12 20 12C24.4183 12 28 15.5817 28 20C28 24.4183 24.4183 28 20 28C18.28 28 16.69 27.46 15.39 26.54L12.5 27.5L13.46 24.61C12.54 23.31 12 21.72 12 20Z" fill="#004071"/>
</svg>

<svg xmlns="http://www.w3.org/2000/svg" width="40" height="40" fill="none"><rect width="40" height="40" fill="#FAFAFA" rx="20"/><rect width="39" height="39" x=".5" y=".5" stroke="#D9D9D9" stroke-opacity=".498" rx="19.5"/><path fill="#004071" fill-rule="evenodd" d="M20 10a10 10 0 1 1-5.35 18.45L10 30l1.55-4.65A9.969 9.969 0 0 1 10 20c0-5.523 4.477-10 10-10Zm4.849 12.01c.193.1.318.164.361.25.06.11.04.61-.21 1.18-.2.56-1.24 1.1-1.7 1.12-.08.004-.148.017-.216.03-.324.065-.691.139-2.744-.76-2.289-1.002-3.741-3.33-4.054-3.832l-.056-.088c-.12-.17-.96-1.38-.92-2.61.05-1.21.679-1.79.943-2.034l.007-.006c.24-.26.51-.29.68-.26h.47l.043-.001c.146-.005.335-.012.507.451l.69 1.87c.06.13.1.28.01.44l-.27.41-.39.42-.009.009c-.118.117-.248.247-.111.491.12.26.62 1.09 1.32 1.78a6.251 6.251 0 0 0 1.791 1.222c.067.032.12.057.159.078.24.14.39.12.54-.04l.81-.94c.187-.247.346-.192.57-.113l.01.003 1.67.88c.035.018.067.035.099.05ZM12 20a8 8 0 1 1 8 8 7.95 7.95 0 0 1-4.61-1.46l-2.89.96.96-2.89A7.95 7.95 0 0 1 12 20Z" clip-rule="evenodd"/></svg>
